actions/32/window-new.svg

<?xml version="1.0" encoding="UTF-8" standalone="no"?>
<!-- Created with Inkscape (http://www.inkscape.org/) -->

<svg
   xmlns:dc="http://purl.org/dc/elements/1.1/"
   xmlns:cc="http://creativecommons.org/ns#"
   xmlns:rdf="http://www.w3.org/1999/02/22-rdf-syntax-ns#"
   xmlns:svg="http://www.w3.org/2000/svg"
   xmlns="http://www.w3.org/2000/svg"
   xmlns:xlink="http://www.w3.org/1999/xlink"
   xmlns:sodipodi="http://sodipodi.sourceforge.net/DTD/sodipodi-0.dtd"
   xmlns:inkscape="http://www.inkscape.org/namespaces/inkscape"
   width="32px"
   height="32px"
   id="svg4069"
   version="1.1"
   inkscape:version="0.47 r22583"
   sodipodi:docname="window-new.svg">
  <defs
     id="defs4071">
    <linearGradient
       inkscape:collect="always"
       xlink:href="#linearGradient3943-8"
       id="linearGradient3059"
       gradientUnits="userSpaceOnUse"
       gradientTransform="matrix(0.37573149,0,0,0.37346493,16.248216,16.686333)"
       x1="24.138529"
       y1="7.0478544"
       x2="24.138529"
       y2="39.268391" />
    <linearGradient
       id="linearGradient3943-8">
      <stop
         id="stop3945-3"
         style="stop-color:#ffffff;stop-opacity:1"
         offset="0" />
      <stop
         id="stop3947-3"
         style="stop-color:#ffffff;stop-opacity:0"
         offset="1" />
    </linearGradient>
    <radialGradient
       r="31.000002"
       fy="51.694645"
       fx="69.447609"
       cy="51.694645"
       cx="69.447609"
       gradientTransform="matrix(0,0.46490462,-0.50575881,0,49.573765,-12.295749)"
       gradientUnits="userSpaceOnUse"
       id="radialGradient3955"
       xlink:href="#linearGradient3242-7-4"
       inkscape:collect="always" />
    <linearGradient
       id="linearGradient3242-7-4">
      <stop
         id="stop3244-5-6"
         style="stop-color:#eef87e;stop-opacity:1"
         offset="0" />
      <stop
         id="stop3246-9-1"
         style="stop-color:#cde34f;stop-opacity:1"
         offset="0.26238" />
      <stop
         id="stop3248-7-5"
         style="stop-color:#93b723;stop-opacity:1"
         offset="0.66093999" />
      <stop
         id="stop3250-8-5"
         style="stop-color:#5a7e0d;stop-opacity:1"
         offset="1" />
    </linearGradient>
    <linearGradient
       y2="51.244411"
       x2="72.421684"
       y1="124.75623"
       x1="72.421684"
       gradientTransform="matrix(0.19311403,0,0,0.19469352,8.0059637,7.8600986)"
       gradientUnits="userSpaceOnUse"
       id="linearGradient3957"
       xlink:href="#linearGradient2490-3-4"
       inkscape:collect="always" />
    <linearGradient
       id="linearGradient2490-3-4">
      <stop
         id="stop2492-3-6"
         style="stop-color:#365f0e;stop-opacity:1"
         offset="0" />
      <stop
         id="stop2494-8-6"
         style="stop-color:#84a718;stop-opacity:1"
         offset="1" />
    </linearGradient>
    <linearGradient
       gradientTransform="translate(0,-3.5900079e-4)"
       inkscape:collect="always"
       xlink:href="#linearGradient3669"
       id="linearGradient3675"
       x1="16"
       y1="4.0003591"
       x2="16"
       y2="10.00036"
       gradientUnits="userSpaceOnUse" />
    <linearGradient
       inkscape:collect="always"
       id="linearGradient3669">
      <stop
         style="stop-color:#ffffff;stop-opacity:1;"
         offset="0"
         id="stop3671" />
      <stop
         style="stop-color:#ffffff;stop-opacity:0.2"
         offset="1"
         id="stop3673" />
    </linearGradient>
    <linearGradient
       inkscape:collect="always"
       xlink:href="#linearGradient2781"
       id="linearGradient2877"
       gradientUnits="userSpaceOnUse"
       gradientTransform="matrix(0.7575749,0,0,0.81967261,-2.9393854,-3.8770548)"
       x1="25.000017"
       y1="17.828943"
       x2="25.000017"
       y2="8.1973696" />
    <linearGradient
       id="linearGradient2781">
      <stop
         id="stop2783"
         style="stop-color:#cdcdcd;stop-opacity:1"
         offset="0" />
      <stop
         id="stop2785"
         style="stop-color:#ffffff;stop-opacity:1"
         offset="1" />
    </linearGradient>
    <linearGradient
       inkscape:collect="always"
       xlink:href="#linearGradient5048"
       id="linearGradient3663"
       gradientUnits="userSpaceOnUse"
       gradientTransform="matrix(0.03104752,0,0,0.01366805,0.7785389,15.669255)"
       x1="302.85715"
       y1="366.64789"
       x2="302.85715"
       y2="609.50507" />
    <linearGradient
       id="linearGradient5048">
      <stop
         id="stop5050"
         style="stop-color:#000000;stop-opacity:0"
         offset="0" />
      <stop
         id="stop5056"
         style="stop-color:#000000;stop-opacity:1"
         offset="0.5" />
      <stop
         id="stop5052"
         style="stop-color:#000000;stop-opacity:0"
         offset="1" />
    </linearGradient>
    <radialGradient
       inkscape:collect="always"
       xlink:href="#linearGradient5060"
       id="radialGradient3665"
       gradientUnits="userSpaceOnUse"
       gradientTransform="matrix(0.03104752,0,0,0.01366805,0.7846491,15.669255)"
       cx="605.71429"
       cy="486.64789"
       fx="605.71429"
       fy="486.64789"
       r="117.14286" />
    <linearGradient
       id="linearGradient5060">
      <stop
         id="stop5062"
         style="stop-color:#000000;stop-opacity:1"
         offset="0" />
      <stop
         id="stop5064"
         style="stop-color:#000000;stop-opacity:0"
         offset="1" />
    </linearGradient>
    <radialGradient
       r="117.14286"
       fy="486.64789"
       fx="605.71429"
       cy="486.64789"
       cx="605.71429"
       gradientTransform="matrix(-0.03104752,0,0,0.01366805,23.215356,15.669255)"
       gradientUnits="userSpaceOnUse"
       id="radialGradient4067"
       xlink:href="#linearGradient5060"
       inkscape:collect="always" />
  </defs>
  <sodipodi:namedview
     id="base"
     pagecolor="#ffffff"
     bordercolor="#666666"
     borderopacity="1.0"
     inkscape:pageopacity="0.0"
     inkscape:pageshadow="2"
     inkscape:zoom="11.197802"
     inkscape:cx="16"
     inkscape:cy="16"
     inkscape:current-layer="layer1"
     showgrid="true"
     inkscape:grid-bbox="true"
     inkscape:document-units="px"
     inkscape:window-width="603"
     inkscape:window-height="443"
     inkscape:window-x="0"
     inkscape:window-y="46"
     inkscape:window-maximized="0" />
  <metadata
     id="metadata4074">
    <rdf:RDF>
      <cc:Work
         rdf:about="">
        <dc:format>image/svg+xml</dc:format>
        <dc:type
           rdf:resource="http://purl.org/dc/dcmitype/StillImage" />
        <dc:title></dc:title>
      </cc:Work>
    </rdf:RDF>
  </metadata>
  <g
     id="layer1"
     inkscape:label="Layer 1"
     inkscape:groupmode="layer">
    <g
       id="g3217"
       transform="matrix(1.4083364,0,0,1.606742,-0.89985795,-7.895157)">
      <rect
         style="opacity:0.23613156;fill:url(#linearGradient3663);fill-opacity:1;fill-rule:nonzero;stroke:none;stroke-width:1;marker:none;visibility:visible;display:inline;overflow:visible"
         id="rect4173"
         y="20.680616"
         x="4.504241"
         height="3.3193836"
         width="14.991517" />
      <path
         style="opacity:0.23613156;fill:url(#radialGradient3665);fill-opacity:1;fill-rule:nonzero;stroke:none;stroke-width:1;marker:none;visibility:visible;display:inline;overflow:visible"
         id="path5058"
         d="m 19.495759,20.680731 c 0,0 0,3.3192 0,3.3192 1.598871,0.0062 3.865291,-0.743664 3.86529,-1.659813 0,-0.91615 -1.784219,-1.659387 -3.86529,-1.659387 z" />
      <path
         style="opacity:0.23613156;fill:url(#radialGradient4067);fill-opacity:1;fill-rule:nonzero;stroke:none;stroke-width:1;marker:none;visibility:visible;display:inline;overflow:visible"
         id="path5018"
         d="m 4.5042417,20.680731 c 0,0 0,3.3192 0,3.3192 -1.5988709,0.0062 -3.8652907,-0.743664 -3.8652907,-1.659813 0,-0.91615 1.784219,-1.659387 3.8652907,-1.659387 z" />
    </g>
    <path
       style="fill:url(#linearGradient2877);fill-opacity:1;stroke:#8c8c8c;stroke-width:1.00000024;stroke-miterlimit:4;stroke-opacity:1;stroke-dasharray:none"
       id="rect1887"
       d="m 6,3.4999991 c -1.4578947,0 -2.4999999,1.0421058 -2.4999999,2.5000005 l 0,10.6578944 0,9.210527 0,2.631578 2.6315791,0 19.7368418,0 2.631579,0 0,-2.631578 0,-9.210527 0,-10.6578944 C 28.5,4.5421049 27.457894,3.4999991 26,3.4999991 l -20,0 z"
       sodipodi:nodetypes="ccccccccccccc" />
    <path
       style="opacity:0.8;fill:none;stroke:url(#linearGradient3675);stroke-width:1.00000083;stroke-miterlimit:4;stroke-opacity:1;stroke-dasharray:none"
       id="rect2779"
       d="m 4.5000002,9.4999997 22.9999988,0 0,-3.333333 c 0,-0.923333 -0.603412,-1.6666664 -1.352942,-1.6666664 l -20.2941157,0 c -0.7495294,0 -1.3529411,0.7433334 -1.3529411,1.6666664 l 0,3.333333 z"
       sodipodi:nodetypes="ccccccc" />
    <rect
       style="color:#000000;fill:#ffffff;fill-opacity:1;fill-rule:nonzero;stroke:none;stroke-width:1;marker:none;visibility:visible;display:inline;overflow:visible;enable-background:accumulate"
       id="rect4122"
       y="10.999955"
       x="4.0000453"
       height="17"
       width="24.000269" />
    <rect
       style="color:#000000;fill:#eeeeee;fill-opacity:1;fill-rule:nonzero;stroke:none;stroke-width:1;marker:none;visibility:visible;display:inline;overflow:visible;enable-background:accumulate"
       id="rect4122-3"
       y="10.666427"
       x="4.0000453"
       height="17.333529"
       width="8.0000896" />
    <path
       style="fill:none;stroke:#a0a0a0;stroke-width:1px;stroke-linecap:butt;stroke-linejoin:miter;stroke-opacity:1"
       id="path4146"
       d="m 4.0000451,10.5 24.0002689,0" />
    <path
       style="fill:#808080;stroke:#b3b3b3;stroke-width:0.99999994px;stroke-linecap:butt;stroke-linejoin:miter;stroke-opacity:1"
       id="path4146-4"
       d="M 11.5,10.999944 11.5,28" />
    <path
       id="rect4172-7"
       style="opacity:0.6;color:#000000;fill:#808080;fill-opacity:1;fill-rule:nonzero;stroke:none;stroke-width:1;marker:none;visibility:visible;display:inline;overflow:visible;enable-background:accumulate"
       d="m 10,5.9999996 1,0 0,1 -1,0 0,-1 z m -2,0 1,0 0,1 -1,0 0,-1 z m -2,0 1,0 0,1 -1,0 0,-1 z" />
    <path
       style="opacity:0.05;fill:none;stroke:#000000;stroke-width:1px;stroke-linecap:butt;stroke-linejoin:miter;stroke-opacity:1"
       id="path4146-0"
       d="m 4.0000451,11.5 24.0002689,0" />
    <path
       id="rect4172-7-4"
       style="opacity:0.3;color:#000000;fill:#ffffff;fill-opacity:1;fill-rule:nonzero;stroke:none;stroke-width:1;marker:none;visibility:visible;display:inline;overflow:visible;enable-background:accumulate"
       d="m 10,6.9999996 1,0 0,1 -1,0 0,-1 z m -2,0 1,0 0,1 -1,0 0,-1 z m -2,0 1,0 0,1 -1,0 0,-1 z" />
    <path
       style="color:#000000;fill:url(#radialGradient3955);fill-opacity:1;fill-rule:nonzero;stroke:url(#linearGradient3957);stroke-width:0.98542744;stroke-linecap:round;stroke-linejoin:round;stroke-miterlimit:4;stroke-opacity:1;stroke-dasharray:none;stroke-dashoffset:0;marker:none;visibility:visible;display:inline;overflow:visible;enable-background:accumulate"
       id="path2262"
       d="m 22.5,22.499999 0,-4.021022 5,0 0,4.021022 4.007287,0 0,5 -4.007287,0 0,4.007287 -5,0 0,-4.007287 -4.007286,0 0,-5 4.007286,0 z" />
    <path
       style="opacity:0.4;fill:none;stroke:url(#linearGradient3059);stroke-width:1;stroke-linecap:butt;stroke-linejoin:miter;stroke-miterlimit:4;stroke-opacity:1;stroke-dasharray:none;display:inline"
       id="path2272"
       d="m 23.5,23.499999 0,-4 3,0 0,4 4.02,0 0,3 -4.02,0 0,4.000001 -3,0 0,-4.000001 -4,0 0,-3 4,0 z" />
  </g>
</svg>

<?xml version="1.0" encoding="UTF-8" standalone="no"?>
<!-- Created with Inkscape (http://www.inkscape.org/) -->

<svg
   xmlns:dc="http://purl.org/dc/elements/1.1/"
   xmlns:cc="http://creativecommons.org/ns#"
   xmlns:rdf="http://www.w3.org/1999/02/22-rdf-syntax-ns#"
   xmlns:svg="http://www.w3.org/2000/svg"
   xmlns="http://www.w3.org/2000/svg"
   xmlns:xlink="http://www.w3.org/1999/xlink"
   xmlns:sodipodi="http://sodipodi.sourceforge.net/DTD/sodipodi-0.dtd"
   xmlns:inkscape="http://www.inkscape.org/namespaces/inkscape"
   width="32px"
   height="32px"
   id="svg4069"
   version="1.1"
   inkscape:version="0.48.3.1 r9886"
   sodipodi:docname="window-new.svg">
  <defs
     id="defs4071">
    <linearGradient
       inkscape:collect="always"
       xlink:href="#linearGradient3943-8"
       id="linearGradient3059"
       gradientUnits="userSpaceOnUse"
       gradientTransform="matrix(0.37573149,0,0,0.37346493,16.248216,16.686333)"
       x1="24.138529"
       y1="7.0478544"
       x2="24.138529"
       y2="39.268391" />
    <linearGradient
       id="linearGradient3943-8">
      <stop
         id="stop3945-3"
         style="stop-color:#ffffff;stop-opacity:1"
         offset="0" />
      <stop
         id="stop3947-3"
         style="stop-color:#ffffff;stop-opacity:0"
         offset="1" />
    </linearGradient>
    <radialGradient
       r="31.000002"
       fy="51.694645"
       fx="69.447609"
       cy="51.694645"
       cx="69.447609"
       gradientTransform="matrix(0,0.46490462,-0.50575881,0,49.573765,-12.295749)"
       gradientUnits="userSpaceOnUse"
       id="radialGradient3955"
       xlink:href="#linearGradient3242-7-4"
       inkscape:collect="always" />
    <linearGradient
       id="linearGradient3242-7-4">
      <stop
         id="stop3244-5-6"
         style="stop-color:#eef87e;stop-opacity:1"
         offset="0" />
      <stop
         id="stop3246-9-1"
         style="stop-color:#cde34f;stop-opacity:1"
         offset="0.26238" />
      <stop
         id="stop3248-7-5"
         style="stop-color:#93b723;stop-opacity:1"
         offset="0.66093999" />
      <stop
         id="stop3250-8-5"
         style="stop-color:#5a7e0d;stop-opacity:1"
         offset="1" />
    </linearGradient>
    <linearGradient
       y2="51.244411"
       x2="72.421684"
       y1="124.75623"
       x1="72.421684"
       gradientTransform="matrix(0.19311403,0,0,0.19469352,8.0059637,7.8600986)"
       gradientUnits="userSpaceOnUse"
       id="linearGradient3957"
       xlink:href="#linearGradient2490-3-4"
       inkscape:collect="always" />
    <linearGradient
       id="linearGradient2490-3-4">
      <stop
         id="stop2492-3-6"
         style="stop-color:#365f0e;stop-opacity:1"
         offset="0" />
      <stop
         id="stop2494-8-6"
         style="stop-color:#84a718;stop-opacity:1"
         offset="1" />
    </linearGradient>
    <linearGradient
       gradientTransform="translate(0,-3.5900079e-4)"
       inkscape:collect="always"
       xlink:href="#linearGradient3669"
       id="linearGradient3675"
       x1="16"
       y1="4.0003591"
       x2="16"
       y2="10.00036"
       gradientUnits="userSpaceOnUse" />
    <linearGradient
       inkscape:collect="always"
       id="linearGradient3669">
      <stop
         style="stop-color:#ffffff;stop-opacity:1;"
         offset="0"
         id="stop3671" />
      <stop
         style="stop-color:#ffffff;stop-opacity:0.2"
         offset="1"
         id="stop3673" />
    </linearGradient>
    <linearGradient
       inkscape:collect="always"
       xlink:href="#linearGradient2781"
       id="linearGradient2877"
       gradientUnits="userSpaceOnUse"
       gradientTransform="matrix(0.7575749,0,0,0.81967261,-2.9393854,-3.8770548)"
       x1="25.000017"
       y1="17.828943"
       x2="25.000017"
       y2="8.1973696" />
    <linearGradient
       id="linearGradient2781">
      <stop
         id="stop2783"
         style="stop-color:#cdcdcd;stop-opacity:1"
         offset="0" />
      <stop
         id="stop2785"
         style="stop-color:#ffffff;stop-opacity:1"
         offset="1" />
    </linearGradient>
    <linearGradient
       inkscape:collect="always"
       xlink:href="#linearGradient5048"
       id="linearGradient3663"
       gradientUnits="userSpaceOnUse"
       gradientTransform="matrix(0.03104752,0,0,0.01366805,0.7785389,15.669255)"
       x1="302.85715"
       y1="366.64789"
       x2="302.85715"
       y2="609.50507" />
    <linearGradient
       id="linearGradient5048">
      <stop
         id="stop5050"
         style="stop-color:#000000;stop-opacity:0"
         offset="0" />
      <stop
         id="stop5056"
         style="stop-color:#000000;stop-opacity:1"
         offset="0.5" />
      <stop
         id="stop5052"
         style="stop-color:#000000;stop-opacity:0"
         offset="1" />
    </linearGradient>
    <radialGradient
       inkscape:collect="always"
       xlink:href="#linearGradient5060"
       id="radialGradient3665"
       gradientUnits="userSpaceOnUse"
       gradientTransform="matrix(0.03104752,0,0,0.01366805,0.7846491,15.669255)"
       cx="605.71429"
       cy="486.64789"
       fx="605.71429"
       fy="486.64789"
       r="117.14286" />
    <linearGradient
       id="linearGradient5060">
      <stop
         id="stop5062"
         style="stop-color:#000000;stop-opacity:1"
         offset="0" />
      <stop
         id="stop5064"
         style="stop-color:#000000;stop-opacity:0"
         offset="1" />
    </linearGradient>
    <radialGradient
       r="117.14286"
       fy="486.64789"
       fx="605.71429"
       cy="486.64789"
       cx="605.71429"
       gradientTransform="matrix(-0.03104752,0,0,0.01366805,23.215356,15.669255)"
       gradientUnits="userSpaceOnUse"
       id="radialGradient4067"
       xlink:href="#linearGradient5060"
       inkscape:collect="always" />
  </defs>
  <sodipodi:namedview
     id="base"
     pagecolor="#ffffff"
     bordercolor="#666666"
     borderopacity="1.0"
     inkscape:pageopacity="0.0"
     inkscape:pageshadow="2"
     inkscape:zoom="22.395604"
     inkscape:cx="12.560393"
     inkscape:cy="21.802941"
     inkscape:current-layer="layer1"
     showgrid="true"
     inkscape:grid-bbox="true"
     inkscape:document-units="px"
     inkscape:window-width="1280"
     inkscape:window-height="750"
     inkscape:window-x="0"
     inkscape:window-y="28"
     inkscape:window-maximized="1" />
  <metadata
     id="metadata4074">
    <rdf:RDF>
      <cc:Work
         rdf:about="">
        <dc:format>image/svg+xml</dc:format>
        <dc:type
           rdf:resource="http://purl.org/dc/dcmitype/StillImage" />
        <dc:title />
      </cc:Work>
    </rdf:RDF>
  </metadata>
  <g
     id="layer1"
     inkscape:label="Layer 1"
     inkscape:groupmode="layer">
    <g
       id="g3217"
       transform="matrix(1.4083364,0,0,1.606742,-0.89985795,-7.895157)">
      <rect
         style="opacity:0.23613156;fill:url(#linearGradient3663);fill-opacity:1;fill-rule:nonzero;stroke:none;stroke-width:1;marker:none;visibility:visible;display:inline;overflow:visible"
         id="rect4173"
         y="20.680616"
         x="4.504241"
         height="3.3193836"
         width="14.991517" />
      <path
         style="opacity:0.23613156;fill:url(#radialGradient3665);fill-opacity:1;fill-rule:nonzero;stroke:none;stroke-width:1;marker:none;visibility:visible;display:inline;overflow:visible"
         id="path5058"
         d="m 19.495759,20.680731 c 0,0 0,3.3192 0,3.3192 1.598871,0.0062 3.865291,-0.743664 3.86529,-1.659813 0,-0.91615 -1.784219,-1.659387 -3.86529,-1.659387 z" />
      <path
         style="opacity:0.23613156;fill:url(#radialGradient4067);fill-opacity:1;fill-rule:nonzero;stroke:none;stroke-width:1;marker:none;visibility:visible;display:inline;overflow:visible"
         id="path5018"
         d="m 4.5042417,20.680731 c 0,0 0,3.3192 0,3.3192 -1.5988709,0.0062 -3.8652907,-0.743664 -3.8652907,-1.659813 0,-0.91615 1.784219,-1.659387 3.8652907,-1.659387 z" />
    </g>
    <path
       style="fill:url(#linearGradient2877);fill-opacity:1;stroke:#8c8c8c;stroke-width:1.00000024;stroke-miterlimit:4;stroke-opacity:1;stroke-dasharray:none"
       id="rect1887"
       d="m 6,3.4999991 c -1.4578947,0 -2.4999999,1.0421058 -2.4999999,2.5000005 l 0,10.6578944 0,9.210527 0,2.631578 2.6315791,0 19.7368418,0 2.631579,0 0,-2.631578 0,-9.210527 0,-10.6578944 C 28.5,4.5421049 27.457894,3.4999991 26,3.4999991 l -20,0 z"
       sodipodi:nodetypes="ccccccccccccc" />
    <path
       style="opacity:0.8;fill:none;stroke:url(#linearGradient3675);stroke-width:1.00000083;stroke-miterlimit:4;stroke-opacity:1;stroke-dasharray:none"
       id="rect2779"
       d="m 4.5000002,9.4999997 22.9999988,0 0,-3.333333 c 0,-0.923333 -0.603412,-1.6666664 -1.352942,-1.6666664 l -20.2941157,0 c -0.7495294,0 -1.3529411,0.7433334 -1.3529411,1.6666664 l 0,3.333333 z"
       sodipodi:nodetypes="ccccccc" />
    <rect
       style="color:#000000;fill:#ffffff;fill-opacity:1;fill-rule:nonzero;stroke:none;stroke-width:1;marker:none;visibility:visible;display:inline;overflow:visible;enable-background:accumulate"
       id="rect4122"
       y="10.999955"
       x="4.0000453"
       height="17"
       width="24.000269" />
    <rect
       style="color:#000000;fill:#eeeeee;fill-opacity:1;fill-rule:nonzero;stroke:none;stroke-width:1;marker:none;visibility:visible;display:inline;overflow:visible;enable-background:accumulate"
       id="rect4122-3"
       y="10.666427"
       x="4.0000453"
       height="17.333529"
       width="8.0000896" />
    <path
       style="fill:none;stroke:#a0a0a0;stroke-width:1px;stroke-linecap:butt;stroke-linejoin:miter;stroke-opacity:1"
       id="path4146"
       d="m 4.0000451,10.5 24.0002689,0" />
    <path
       style="fill:#808080;stroke:#b3b3b3;stroke-width:0.99999994px;stroke-linecap:butt;stroke-linejoin:miter;stroke-opacity:1"
       id="path4146-4"
       d="M 11.5,10.999944 11.5,28" />
    <path
       style="opacity:0.05;fill:none;stroke:#000000;stroke-width:1px;stroke-linecap:butt;stroke-linejoin:miter;stroke-opacity:1"
       id="path4146-0"
       d="m 4.0000451,11.5 24.0002689,0" />
    <path
       style="color:#000000;fill:url(#radialGradient3955);fill-opacity:1;fill-rule:nonzero;stroke:url(#linearGradient3957);stroke-width:0.98542744;stroke-linecap:round;stroke-linejoin:round;stroke-miterlimit:4;stroke-opacity:1;stroke-dasharray:none;stroke-dashoffset:0;marker:none;visibility:visible;display:inline;overflow:visible;enable-background:accumulate"
       id="path2262"
       d="m 22.5,22.499999 0,-4.021022 5,0 0,4.021022 4.007287,0 0,5 -4.007287,0 0,4.007287 -5,0 0,-4.007287 -4.007286,0 0,-5 4.007286,0 z" />
    <path
       style="opacity:0.4;fill:none;stroke:url(#linearGradient3059);stroke-width:1;stroke-linecap:butt;stroke-linejoin:miter;stroke-miterlimit:4;stroke-opacity:1;stroke-dasharray:none;display:inline"
       id="path2272"
       d="m 23.5,23.499999 0,-4 3,0 0,4 4.02,0 0,3 -4.02,0 0,4.000001 -3,0 0,-4.000001 -4,0 0,-3 4,0 z" />
    <path
       inkscape:connector-curvature="0"
       style="opacity:0.6;color:#000000;fill:#808080;fill-opacity:1;fill-rule:nonzero;stroke:none;stroke-width:1;marker:none;visibility:visible;display:inline;overflow:visible;enable-background:accumulate"
       d="M 6,6 7,6 7,7 6,7 6,6 z"
       id="rect4172-7-35" />
    <path
       inkscape:connector-curvature="0"
       style="opacity:0.3;color:#000000;fill:#ffffff;fill-opacity:1;fill-rule:nonzero;stroke:none;stroke-width:1;marker:none;visibility:visible;display:inline;overflow:visible;enable-background:accumulate"
       d="M 6,7 7,7 7,8 6,8 6,7 z"
       id="rect4172-7-4-1" />
    <path
       inkscape:connector-curvature="0"
       style="opacity:0.6;color:#000000;fill:#808080;fill-opacity:1;fill-rule:nonzero;stroke:none;stroke-width:1;marker:none;visibility:visible;display:inline;overflow:visible;enable-background:accumulate"
       d="m 25,6 1,0 0,1 -1,0 0,-1 z"
       id="rect4172-7-35-2" />
    <path
       inkscape:connector-curvature="0"
       style="opacity:0.3;color:#000000;fill:#ffffff;fill-opacity:1;fill-rule:nonzero;stroke:none;stroke-width:1;marker:none;visibility:visible;display:inline;overflow:visible;enable-background:accumulate"
       d="m 25,7 1,0 0,1 -1,0 0,-1 z"
       id="rect4172-7-4-1-4" />
  </g>
</svg>
